public/images/common/onepoint_on.svg

<svg width="130" height="50" viewBox="0 0 130 50" fill="none" xmlns="http://www.w3.org/2000/svg">
<path d="M67.79 19.16C68.3397 19.1601 68.8771 19.3225 69.3347 19.6269C69.7924 19.9313 70.15 20.3642 70.3625 20.8711C70.5751 21.378 70.6332 21.9364 70.5295 22.4762C70.4259 23.016 70.1651 23.5131 69.7798 23.9052C69.3946 24.2973 68.9022 24.5669 68.3643 24.6801C67.8265 24.7934 67.2671 24.7452 66.7565 24.5417C66.2459 24.3382 65.8068 23.9884 65.4943 23.5362C65.1818 23.084 65.0099 22.5496 65 22C65.0027 21.2608 65.2975 20.5527 65.8201 20.0301C66.3428 19.5074 67.0509 19.2126 67.79 19.21M67.79 15.42C66.4886 15.42 65.2164 15.8059 64.1344 16.5289C63.0523 17.2519 62.2089 18.2796 61.7109 19.4819C61.2129 20.6843 61.0826 22.0073 61.3365 23.2837C61.5903 24.5601 62.217 25.7325 63.1373 26.6527C64.0575 27.573 65.2299 28.1997 66.5063 28.4536C67.7827 28.7074 69.1057 28.5771 70.3081 28.0791C71.5104 27.5811 72.5381 26.7377 73.2611 25.6556C73.9841 24.5736 74.37 23.3014 74.37 22C74.37 20.2549 73.6768 18.5812 72.4428 17.3472C71.2088 16.1132 69.5351 15.42 67.79 15.42Z" fill="#9E9E9E"/>
<path d="M67.79 23.95C68.8945 23.95 69.79 23.0546 69.79 21.95C69.79 20.8454 68.8945 19.95 67.79 19.95C66.6854 19.95 65.79 20.8454 65.79 21.95C65.79 23.0546 66.6854 23.95 67.79 23.95Z" fill="#412118"/>
<path d="M67.79 14.76C69.2103 14.7581 70.5994 15.1768 71.782 15.9635C72.9646 16.7501 73.8877 17.8694 74.4349 19.1801C74.982 20.4909 75.1287 21.9343 74.8565 23.3283C74.5842 24.7223 73.9052 26.0044 72.905 27.0129C71.9049 28.0214 70.6284 28.7111 69.2368 28.9949C67.8451 29.2788 66.4005 29.1441 65.0853 28.6079C63.7701 28.0716 62.6431 27.1579 61.8466 25.9819C61.0502 24.8059 60.6199 23.4203 60.61 22C60.6126 20.0956 61.3696 18.2699 62.7153 16.9223C64.0609 15.5748 65.8856 14.8153 67.79 14.81M67.79 14.49C66.3051 14.492 64.8541 14.9341 63.6204 15.7605C62.3867 16.5869 61.4257 17.7605 60.8588 19.133C60.2919 20.5054 60.1446 22.0151 60.4355 23.4712C60.7264 24.9274 61.4425 26.2646 62.4931 27.3139C63.5438 28.3632 64.882 29.0775 66.3385 29.3664C67.7951 29.6554 69.3045 29.5061 70.6762 28.9374C72.0479 28.3687 73.2202 27.4061 74.045 26.1713C74.8698 24.9365 75.31 23.4849 75.31 22C75.31 21.0129 75.1154 20.0355 74.7374 19.1237C74.3593 18.2119 73.8052 17.3836 73.1068 16.6861C72.4084 15.9886 71.5793 15.4356 70.667 15.0588C69.7547 14.682 68.7771 14.4887 67.79 14.49V14.49Z" fill="#9E9E9E"/>
<path d="M74.25 14.22L73.1 13.42L71.25 16.05L70.16 15.28L67.98 21.95L73.5 17.62L72.41 16.86L74.25 14.22Z" fill="#191818"/>
<path d="M14.8 36.29C13.1198 36.4065 11.4579 35.8812 10.15 34.82C9.5927 34.2684 9.16051 33.6034 8.88273 32.8701C8.60494 32.1368 8.48806 31.3524 8.54 30.57V20.94C8.48127 20.1951 8.59507 19.4468 8.87257 18.753C9.15006 18.0593 9.58377 17.4389 10.14 16.94C11.4827 15.9489 13.1354 15.4701 14.8 15.59C16.4747 15.4911 18.1299 15.9908 19.47 17C20.0232 17.5008 20.4542 18.1218 20.7299 18.8152C21.0055 19.5087 21.1184 20.2561 21.06 21V30.63C21.1119 31.4124 20.9951 32.1968 20.7173 32.9301C20.4395 33.6634 20.0073 34.3284 19.45 34.88C18.1334 35.9197 16.4724 36.4234 14.8 36.29V36.29ZM14.8 32.56C15.57 32.56 15.96 31.96 15.96 30.77V20.87C15.96 19.87 15.58 19.37 14.83 19.37C14.08 19.37 13.56 19.88 13.56 20.91V30.79C13.525 31.2617 13.6256 31.7336 13.85 32.15C13.9657 32.2978 14.1177 32.4132 14.2911 32.485C14.4646 32.5569 14.6536 32.5827 14.84 32.56H14.8Z" fill="#6D301B"/>
<path d="M22.88 36.14V24.14H26.47V24.83C26.7534 24.5217 27.1064 24.2856 27.4995 24.1412C27.8925 23.9968 28.3144 23.9484 28.73 24C29.141 23.9654 29.5547 24.0159 29.9453 24.1484C30.3358 24.2809 30.6949 24.4925 31 24.77C31.4985 25.3562 31.7527 26.1116 31.71 26.88V36.14H28.17V27.14C28.1707 26.9109 28.1084 26.6861 27.99 26.49C27.9243 26.3878 27.8316 26.3056 27.7222 26.2527C27.6128 26.1998 27.491 26.1781 27.37 26.19C27.2592 26.1815 27.1479 26.1977 27.0441 26.2375C26.9404 26.2773 26.8467 26.3396 26.77 26.42C26.632 26.581 26.545 26.7794 26.52 26.99C26.4883 27.212 26.4716 27.4358 26.47 27.66V36.11L22.88 36.14Z" fill="#6D301B"/>
<path d="M37.32 36.27C36.4412 36.3076 35.5655 36.1434 34.76 35.79C34.1607 35.4964 33.6806 35.0056 33.4 34.4C33.1145 33.7097 32.9782 32.9668 33 32.22V27.4C32.9713 26.91 33.0661 26.4206 33.2758 25.9768C33.4854 25.533 33.8033 25.149 34.2 24.86C35.1847 24.2391 36.3376 23.9386 37.5 24C40.38 24 41.83 25.14 41.83 27.4V28.27C41.83 29.33 41.83 30.04 41.83 30.4H36.58V32.72C36.5768 32.9311 36.5935 33.1421 36.63 33.35C36.6572 33.5364 36.7331 33.7124 36.85 33.86C36.9256 33.9316 37.0155 33.9864 37.1137 34.0208C37.2119 34.0553 37.3163 34.0687 37.42 34.06C37.79 34.06 38.03 33.93 38.12 33.67C38.2202 33.3464 38.2674 33.0087 38.26 32.67V31.5H41.83V32.18C41.8538 32.9548 41.7106 33.7256 41.41 34.44C41.1218 35.0526 40.6207 35.5396 40 35.81C39.1482 36.1474 38.2356 36.3041 37.32 36.27V36.27ZM36.56 29H38.26V27.36C38.2849 27.0372 38.2154 26.7141 38.06 26.43C37.9933 26.3343 37.9031 26.2573 37.798 26.2065C37.6929 26.1557 37.5765 26.1328 37.46 26.14C37.3354 26.1331 37.2107 26.1536 37.0949 26.2003C36.9791 26.247 36.875 26.3186 36.79 26.41C36.6109 26.6927 36.53 27.0267 36.56 27.36V29Z" fill="#6D301B"/>
<path d="M45.13 36.11V15.82H51.84C53.0007 15.7626 54.1552 16.0219 55.18 16.57C56.011 17.0527 56.6529 17.8039 57 18.7C57.3732 19.7593 57.5528 20.8771 57.53 22C57.5248 23.0914 57.3459 24.1749 57 25.21C56.7339 26.0781 56.1711 26.825 55.41 27.32C54.4205 27.8753 53.2927 28.1355 52.16 28.07H50.12V36.07L45.13 36.11ZM50.13 24.43H50.42C51.36 24.43 51.94 24.22 52.15 23.8C52.3933 23.2079 52.5026 22.5693 52.47 21.93C52.5017 21.3209 52.3957 20.7125 52.16 20.15C51.95 19.73 51.47 19.52 50.7 19.52H50.13V24.43Z" fill="#412118"/>
<path d="M60.53 36.27C57.73 36.27 56.33 35.1066 56.33 32.78V28.28C56.3103 27.7992 56.4009 27.3202 56.5951 26.8799C56.7892 26.4396 57.0817 26.0497 57.45 25.74C58.3595 25.1205 59.4345 24.7891 60.535 24.7891C61.6355 24.7891 62.7104 25.1205 63.62 25.74C63.9883 26.0497 64.2807 26.4396 64.4749 26.8799C64.669 27.3202 64.7597 27.7992 64.74 28.28V32.78C64.74 35.1133 63.3366 36.2766 60.53 36.27ZM60.53 34.2C60.6433 34.2095 60.7572 34.1928 60.863 34.1512C60.9688 34.1096 61.0636 34.0441 61.14 33.96C61.2669 33.7789 61.3302 33.5609 61.32 33.34V27.85C61.32 27.2 61.06 26.85 60.53 26.85C60 26.85 59.74 27.18 59.74 27.85V33.34C59.7327 33.562 59.7995 33.7802 59.93 33.96C60.0033 34.0452 60.0962 34.1116 60.2006 34.1534C60.3051 34.1951 60.418 34.2111 60.53 34.2V34.2Z" fill="#412118"/>
<path d="M66 36.15V24.91H69.35V36.15H66Z" fill="#412118"/>
<path d="M70.64 36.15V24.91H74V26.34C74.1192 25.9149 74.363 25.5352 74.7 25.25C75.0997 24.9254 75.6059 24.7614 76.12 24.79C76.5041 24.7552 76.8912 24.8013 77.2563 24.9254C77.6214 25.0494 77.9566 25.2485 78.24 25.51C78.711 26.0659 78.9476 26.783 78.9 27.51V36.18H75.59V27.76C75.5895 27.545 75.5307 27.3342 75.42 27.15C75.3591 27.0538 75.2725 26.9767 75.17 26.9272C75.0675 26.8777 74.9532 26.8579 74.84 26.87C74.7355 26.862 74.6305 26.8766 74.5321 26.9129C74.4338 26.9491 74.3444 27.0061 74.27 27.08C74.1483 27.2335 74.069 27.4162 74.04 27.61C74.0254 27.8231 74.0254 28.0369 74.04 28.25V36.15H70.64Z" fill="#412118"/>
<path d="M83.1 36.27C82.4514 36.3406 81.799 36.1775 81.26 35.81C81.0911 35.6165 80.9625 35.3912 80.8818 35.1474C80.8011 34.9035 80.7699 34.6461 80.79 34.39V27.39H79.79V25.39H80.79V23H84.05V25.38H85.05V27.38H84.05V33.76C84.0373 33.896 84.0766 34.0318 84.16 34.14C84.2856 34.2354 84.4433 34.2784 84.6 34.26C84.7331 34.2711 84.8669 34.2711 85 34.26V36.08L84.3 36.2C83.9023 36.2531 83.5012 36.2765 83.1 36.27V36.27Z" fill="#412118"/>
<path d="M95.24 28.64H91.36V31.18H95.25V34.89H88.12V24.89H92V21.72H88.12V18H95.24V28.64ZM100 36.58H96.89V28.67H95.56V25H96.88V17.81H100V36.58ZM103.62 36.58H100.5V17.78H103.62V36.58Z" fill="#6D301B"/>
<path d="M106.07 26.47H120.77V30H106.07V26.47ZM113.42 22.78C112.653 23.6573 111.69 24.3423 110.61 24.78C109.43 25.2634 108.165 25.5048 106.89 25.49L106.28 22C107.186 22.0159 108.084 21.8315 108.91 21.46C109.643 21.1465 110.278 20.6423 110.75 20C111.207 19.328 111.466 18.5417 111.5 17.73H115.34C115.374 18.5417 115.633 19.328 116.09 20C116.554 20.6644 117.19 21.1899 117.93 21.52C118.756 21.8915 119.654 22.0759 120.56 22.06L120 25.48C118.725 25.4948 117.46 25.2534 116.28 24.77C115.183 24.342 114.203 23.6601 113.42 22.78V22.78ZM110.32 30.94V33.12H120.32V36.58H106.48V30.94H110.32Z" fill="#6D301B"/>
</svg>

<svg id="Layer_1" data-name="Layer 1" xmlns="http://www.w3.org/2000/svg" viewBox="0 0 130 50"><defs><style>.cls-1{fill:#fff;}.cls-2{fill:#412118;}.cls-3{fill:#191818;}.cls-4{fill:#6d301b;}</style></defs><path class="cls-1" d="M67.79,19.16A2.79,2.79,0,1,1,65,22a2.8,2.8,0,0,1,2.79-2.79m0-3.79A6.58,6.58,0,1,0,74.37,22a6.58,6.58,0,0,0-6.58-6.58Z"/><circle class="cls-2" cx="67.79" cy="21.95" r="2"/><path class="cls-1" d="M67.79,14.76A7.19,7.19,0,1,1,60.61,22a7.2,7.2,0,0,1,7.18-7.19m0-.32A7.51,7.51,0,1,0,75.31,22a7.51,7.51,0,0,0-7.52-7.51Z"/><polygon class="cls-3" points="74.25 14.22 73.1 13.42 71.25 16.05 70.16 15.28 67.98 21.95 73.5 17.62 72.41 16.86 74.25 14.22"/><path class="cls-4" d="M14.8,36.29a6.65,6.65,0,0,1-4.65-1.47,5.47,5.47,0,0,1-1.61-4.25V20.94a4.86,4.86,0,0,1,1.6-4,7,7,0,0,1,4.66-1.35A7.07,7.07,0,0,1,19.47,17a4.88,4.88,0,0,1,1.59,4v9.63a5.47,5.47,0,0,1-1.61,4.25A6.65,6.65,0,0,1,14.8,36.29Zm0-3.73c.77,0,1.16-.6,1.16-1.79v-9.9c0-1-.38-1.5-1.13-1.5s-1.27.51-1.27,1.54v9.88a2.48,2.48,0,0,0,.29,1.36A1.09,1.09,0,0,0,14.84,32.56Z"/><path class="cls-4" d="M22.88,36.14v-12h3.59v.69A2.63,2.63,0,0,1,28.73,24a3,3,0,0,1,2.27.77,3,3,0,0,1,.71,2.11v9.26H28.17v-9a1.25,1.25,0,0,0-.18-.65.66.66,0,0,0-.62-.3.75.75,0,0,0-.6.23,1.07,1.07,0,0,0-.25.57,5,5,0,0,0-.05.67v8.45Z"/><path class="cls-4" d="M37.32,36.27a5.76,5.76,0,0,1-2.56-.48A2.91,2.91,0,0,1,33.4,34.4,5.3,5.3,0,0,1,33,32.22V27.4a2.93,2.93,0,0,1,1.2-2.54A5.63,5.63,0,0,1,37.5,24c2.88,0,4.33,1.14,4.33,3.4v.87c0,1.06,0,1.77,0,2.13H36.58v2.32a3.35,3.35,0,0,0,.05.63,1.07,1.07,0,0,0,.22.51.74.74,0,0,0,.57.2c.37,0,.61-.13.7-.39a3.15,3.15,0,0,0,.14-1V31.5h3.57v.68a5.4,5.4,0,0,1-.42,2.26A2.79,2.79,0,0,1,40,35.81,6.61,6.61,0,0,1,37.32,36.27ZM36.56,29h1.7V27.36a1.67,1.67,0,0,0-.2-.93.68.68,0,0,0-.6-.29.85.85,0,0,0-.67.27,1.52,1.52,0,0,0-.23.95Z"/><path class="cls-2" d="M45.13,36.11V15.82h6.71a6.41,6.41,0,0,1,3.34.75A4.23,4.23,0,0,1,57,18.7a9.36,9.36,0,0,1,.53,3.3A10.28,10.28,0,0,1,57,25.21a3.87,3.87,0,0,1-1.59,2.11,5.94,5.94,0,0,1-3.25.75H50.12v8Zm5-11.68h.29c.94,0,1.52-.21,1.73-.63a4.34,4.34,0,0,0,.32-1.87,4.06,4.06,0,0,0-.31-1.78c-.21-.42-.69-.63-1.46-.63h-.57Z"/><path class="cls-2" d="M60.53,36.27q-4.2,0-4.2-3.49v-4.5a3.15,3.15,0,0,1,1.12-2.54,5.48,5.48,0,0,1,6.17,0,3.15,3.15,0,0,1,1.12,2.54v4.5Q64.74,36.28,60.53,36.27Zm0-2.07a.74.74,0,0,0,.61-.24,1,1,0,0,0,.18-.62V27.85c0-.65-.26-1-.79-1s-.79.33-.79,1v5.49a1,1,0,0,0,.19.62A.7.7,0,0,0,60.53,34.2Z"/><path class="cls-2" d="M66,36.15V24.91h3.35V36.15Z"/><path class="cls-2" d="M70.64,36.15V24.91H74v1.43a2.21,2.21,0,0,1,.7-1.09,2.07,2.07,0,0,1,1.42-.46,2.76,2.76,0,0,1,2.12.72,2.81,2.81,0,0,1,.66,2v8.67H75.59V27.76a1.19,1.19,0,0,0-.17-.61.61.61,0,0,0-.58-.28.73.73,0,0,0-.57.21,1.12,1.12,0,0,0-.23.53,4.68,4.68,0,0,0,0,.64v7.9Z"/><path class="cls-2" d="M83.1,36.27a2.74,2.74,0,0,1-1.84-.46,1.93,1.93,0,0,1-.47-1.42v-7h-1v-2h1V23h3.26v2.38h1v2h-1v6.38a.54.54,0,0,0,.11.38.61.61,0,0,0,.44.12,2.41,2.41,0,0,0,.4,0v1.82l-.7.12A8.08,8.08,0,0,1,83.1,36.27Z"/><path class="cls-4" d="M95.24,28.64H91.36v2.54h3.89v3.71H88.12v-10H92V21.72H88.12V18h7.12ZM100,36.58H96.89V28.67H95.56V25h1.32V17.81H100Zm3.62,0h-3.12V17.78h3.12Z"/><path class="cls-4" d="M106.07,26.47h14.7V30h-14.7Zm7.35-3.69a7.45,7.45,0,0,1-2.81,2,9.52,9.52,0,0,1-3.72.71L106.28,22a6.15,6.15,0,0,0,2.63-.54A4.46,4.46,0,0,0,110.75,20a4.36,4.36,0,0,0,.75-2.27h3.84a4.36,4.36,0,0,0,.75,2.27,4.46,4.46,0,0,0,1.84,1.52,6.15,6.15,0,0,0,2.63.54L120,25.48a9.52,9.52,0,0,1-3.72-.71A7.45,7.45,0,0,1,113.42,22.78Zm-3.1,8.16v2.18h10v3.46H106.48V30.94Z"/></svg>
